icons/visualbasic-dark.svg

<svg width="256" height="256" viewBox="0 0 256 256" fill="none" xmlns="http://www.w3.org/2000/svg">
<path d="M196 0H60C26.8629 0 0 26.8629 0 60V196C0 229.137 26.8629 256 60 256H196C229.137 256 256 229.137 256 196V60C256 26.8629 229.137 0 196 0Z" fill="#282828"/>
<g clip-path="url(#clip0_163_259)">
<path d="M127.5 216C175.825 216 215 176.825 215 128.5C215 80.1751 175.825 41 127.5 41C79.1751 41 40 80.1751 40 128.5C40 176.825 79.1751 216 127.5 216Z" fill="#004E8C"/>
<path opacity="0.1" d="M69.2872 63C60.3921 70.9264 53.2096 80.586 48.1797 91.3864C43.1499 102.187 40.3788 113.901 40.0362 125.81C39.6936 137.72 41.7868 149.573 46.1874 160.645C50.5881 171.717 57.2035 181.773 65.6282 190.198C74.0528 198.623 84.1092 205.238 95.181 209.639C106.253 214.039 118.107 216.133 130.016 215.79C141.925 215.447 153.639 212.676 164.44 207.646C175.24 202.617 184.9 195.434 192.826 186.539L69.2872 63Z" fill="white"/>
<path d="M131.027 94.0469L105.625 162.953H96.6289L71.6367 94.0469H80.6328L99.7734 148.734C100.434 150.717 100.901 152.759 101.168 154.832H101.359C101.646 152.705 102.159 150.615 102.891 148.598L122.359 93.9102L131.027 94.0469Z" fill="white"/>
<path d="M140.953 162.953V94.0468H160.559C165.65 93.7743 170.672 95.3254 174.723 98.4218C176.417 99.7897 177.772 101.53 178.683 103.508C179.593 105.486 180.035 107.648 179.973 109.824C180.026 113.479 178.883 117.051 176.719 119.996C174.534 122.929 171.468 125.085 167.969 126.148V126.34C172.201 126.681 176.165 128.546 179.125 131.59C181.987 134.745 183.49 138.9 183.309 143.156C183.398 145.868 182.874 148.565 181.776 151.046C180.677 153.527 179.033 155.728 176.965 157.484C172.49 161.218 166.793 163.165 160.969 162.953H140.953ZM149.156 101.32V123.578H157.359C161.094 123.754 164.769 122.59 167.723 120.297C169.002 119.182 170.01 117.789 170.669 116.225C171.327 114.662 171.62 112.968 171.523 111.273C171.523 104.583 167.121 101.238 158.316 101.238L149.156 101.32ZM149.156 130.824V155.625H160.094C164.025 155.853 167.907 154.659 171.031 152.262C172.335 151.119 173.363 149.697 174.04 148.101C174.717 146.506 175.025 144.778 174.941 143.047C174.941 134.917 169.4 130.851 158.316 130.851L149.156 130.824Z" fill="white"/>
</g>
<defs>
<clipPath id="clip0_163_259">
<rect width="175" height="175" fill="white" transform="translate(40 41)"/>
</clipPath>
</defs>
</svg>

<svg xmlns="http://www.w3.org/2000/svg" width="256" height="256" fill="none"><path fill="#282828" d="M196 0H60C26.863 0 0 26.863 0 60v136c0 33.137 26.863 60 60 60h136c33.137 0 60-26.863 60-60V60c0-33.137-26.863-60-60-60"/><g clip-path="url(#clip0_163_259)"><path fill="#004E8C" d="M127.5 216c48.325 0 87.5-39.175 87.5-87.5S175.825 41 127.5 41 40 80.175 40 128.5 79.175 216 127.5 216"/><path fill="#fff" d="M69.287 63a87.5 87.5 0 1 0 123.539 123.539z" opacity=".1"/><path fill="#fff" d="m131.027 94.047-25.402 68.906h-8.996L71.637 94.047h8.996l19.14 54.687a32.4 32.4 0 0 1 1.395 6.098h.191c.287-2.127.8-4.217 1.532-6.234l19.468-54.688zm9.926 68.906V94.047h19.606a21.44 21.44 0 0 1 14.164 4.375 14.14 14.14 0 0 1 5.25 11.402 16.77 16.77 0 0 1-3.254 10.172 17.1 17.1 0 0 1-8.75 6.152v.192a17.52 17.52 0 0 1 11.156 5.25 16.2 16.2 0 0 1 4.184 11.566 18.02 18.02 0 0 1-6.344 14.328 23.63 23.63 0 0 1-15.996 5.469zm8.203-61.633v22.258h8.203c3.735.176 7.41-.988 10.364-3.281a11.13 11.13 0 0 0 3.8-9.024q0-10.035-13.207-10.035zm0 29.504v24.801h10.938a16.4 16.4 0 0 0 10.937-3.363 11.5 11.5 0 0 0 3.91-9.215q0-12.196-16.625-12.196z"/></g><defs><clipPath id="clip0_163_259"><path fill="#fff" d="M40 41h175v175H40z"/></clipPath></defs></svg>
